docs/images/icons/footer_icon.svg

<svg width="184" height="154" fill="none" xmlns="http://www.w3.org/2000/svg"><g opacity=".7" fill="#FFF" fill-rule="evenodd"><path d="M141.58 90.59q-5.2 24.69-25.54 39.62-20.35 14.92-45.46 12.47-25.11-2.45-42.18-21.02Q11.33 103.08 11 77.85q-.33-25.23 16.26-44.24Q43.84 14.6 68.88 11.5q25.04-3.11 45.76 11.28 20.72 14.4 26.56 38.94l-1.94.46q-5.66-23.8-25.76-37.75-20.09-13.96-44.38-10.95-24.27 3.01-40.36 21.44Q12.68 53.36 13 77.83q.32 24.46 16.87 42.47 16.56 18.02 40.91 20.39 24.35 2.38 44.07-12.09 19.73-14.48 24.77-38.42l1.96.41Z"/><path d="M173.24 78H54.99v-2h118.25l4.75-4.75 5.75 5.75-5.75 5.75-4.75-4.75Z"/></g></svg>

<svg width="184.000000" height="154.000000" viewBox="0 0 184 154" fill="none" xmlns="http://www.w3.org/2000/svg" xmlns:xlink="http://www.w3.org/1999/xlink">
	<desc>
			Created with Pixso.
	</desc>
	<defs/>
	<g opacity="0.700000">
		<path id="Ellipse 10" d="M141.58 90.59Q136.38 115.28 116.04 130.21Q95.69 145.13 70.58 142.68Q45.47 140.23 28.4 121.66Q11.33 103.08 11 77.85Q10.67 52.62 27.26 33.61Q43.84 14.6 68.88 11.5Q93.92 8.39 114.64 22.78Q135.36 37.18 141.2 61.72L139.26 62.18Q133.6 38.38 113.5 24.43Q93.41 10.47 69.12 13.48Q44.85 16.49 28.76 34.92Q12.68 53.36 13 77.83Q13.32 102.29 29.87 120.3Q46.43 138.32 70.78 140.69Q95.13 143.07 114.85 128.6Q134.58 114.12 139.62 90.18L141.58 90.59Z" fill="#FFFFFF" fill-opacity="1.000000" fill-rule="evenodd"/>
		<path id="Arrow 1" d="M173.24 78L54.99 78L54.99 76L173.24 76L177.99 71.25L183.74 77L177.99 82.75L173.24 78Z" fill="#FFFFFF" fill-opacity="1.000000" fill-rule="evenodd"/>
	</g>
</svg>
